X:1
T:The Keyhole in the Door
M:6/8
L:1/8
K:D
A-G| F2 F G2 ^G| A d2- d2 B|A-B AF-E D| E3- E2A/2-=G/2| F2 F G2 ^G|\
 A d2- d2 B|A-B A=G-F E| D3- D2 A| B2 B d2 B| A F2- F2 A|A-B AF-E D|\
 E3- E2A/2-G/2| F2 F G2 ^G| A d2- dd B|A-B A=G-F E| D3- D2||
